assets/Heart on fire/Flat/heart_on_fire_flat.svg

<svg width="32" height="32" viewBox="0 0 32 32" fill="none" xmlns="http://www.w3.org/2000/svg">
<path d="M19 6.97C17.8898 6.58852 16.2903 5.2541 16.0356 2.68414C15.9949 2.30266 15.6588 2.01154 15.2615 2.0015C12.2874 1.92119 10.3474 5.0734 9.56314 6.63947C9.32888 7.1113 8.83612 7.39152 8.5 7C8.00091 6.41774 8.14078 4.58802 7 5.1C3.74063 6.56568 2 10.5427 2 15C2 22.6396 13.4893 28.7753 15.6486 29.9097C15.8727 30.0301 16.1273 30.0301 16.3514 29.9097C18.5209 28.7753 30 22.6396 30 15C30 9.74965 25.8138 5.85704 21.1386 4.04C20.6293 3.83922 20 4.4579 20 5V5.97377C19.9898 6.4958 19.4991 7.14066 19 6.97Z" fill="#F9C23C"/>
<path d="M20.2981 8.63998C17.8692 9.08316 16 12.0308 16 12.0308C16 12.0308 14.1408 9.07285 11.7019 8.63998C5.69461 7.5578 3.21572 12.979 4.21527 17.0191C6.00447 24.2131 16 30.5 16 30.5C16 30.5 25.9955 24.2131 27.7847 17.0191C28.7843 12.979 26.3054 7.5578 20.2981 8.63998Z" fill="#F92F60"/>
</svg>

<svg xmlns="http://www.w3.org/2000/svg" width="32" height="32" fill="none"><path fill="#F9C23C" d="M19 6.97c-1.11-.381-2.71-1.716-2.964-4.286-.041-.381-.377-.672-.775-.683-2.974-.08-4.914 3.072-5.698 4.638-.234.472-.727.753-1.063.361C8 6.418 8.14 4.588 7 5.1 3.74 6.566 2 10.543 2 15c0 7.64 11.49 13.775 13.649 14.91.224.12.478.12.702 0C18.521 28.775 30 22.64 30 15c0-5.25-4.186-9.143-8.861-10.96-.51-.2-1.139.418-1.139.96v.974c-.01.522-.5 1.167-1 .996Z"/><path fill="#F92F60" d="M20.298 8.64C17.87 9.083 16 12.03 16 12.03s-1.86-2.957-4.298-3.39c-6.007-1.082-8.486 4.339-7.487 8.38C6.005 24.212 16 30.5 16 30.5s9.995-6.287 11.785-13.48c1-4.041-1.48-9.462-7.487-8.38Z"/></svg>
